X:5
T:Joauste ar c'heiste
R:an dro
D:Skolvan
O:Bretagne
Z:id:hn-an dro-5
M:2/4
L:1/16
K:Em
B2Bc B3G | A3G FGFE | B2Bc B3G | A2GA F4 :|
|: E2FG A3B | A2GF BcB2 | E2FG A2BA | G2EA AGFG |
E2FG A3B | A2GF BcB2 | E2FG A2BA | G2FG E4 :|

